public/img/icons/favicon.svg

<svg width="72" height="72" viewBox="0 0 72 72" fill="none" xmlns="http://www.w3.org/2000/svg">
<circle cx="36" cy="36" r="36" fill="#FF0000"/>
<path d="M58.4955 35.7542L37.2939 48.9337C36.9619 51.0068 36.098 53.0112 34.6966 54.7238L16.8787 38.0608C18.6122 36.4389 20.703 35.419 22.8866 34.9947L36.2455 13.5041C36.723 12.7364 37.4693 12.9557 38.2372 13.4325C39.0049 13.91 39.5029 14.4648 39.0257 15.2325L26.817 34.8725C28.8434 35.1366 30.8159 35.9065 32.5296 37.1864L51.7895 17.9264C52.4289 17.2875 53.0208 17.7008 53.66 18.3398C54.2992 18.9792 54.7434 19.6019 54.1042 20.2411L34.8677 39.4777C36.1733 41.1493 36.9836 43.0808 37.2982 45.0766L56.767 32.9742C57.5349 32.497 58.0904 32.9952 58.5672 33.7625C59.0449 34.5302 59.2632 35.2769 58.4955 35.7542ZM16.5793 55.6369C20.8602 59.9178 27.524 60.3577 32.2983 56.9626L14.8021 40.6004C11.9084 45.311 12.4987 51.5565 16.5793 55.6369Z" fill="white"/>
</svg>

<svg xmlns="http://www.w3.org/2000/svg" width="72" height="72" fill="none" viewBox="0 0 72 72"><circle cx="36" cy="36" r="36" fill="red"/><path fill="#fff" d="m58.496 35.754-21.202 13.18a12.16 12.16 0 0 1-2.597 5.79L16.879 38.06a12.16 12.16 0 0 1 6.008-3.066l13.359-21.49c.477-.769 1.223-.55 1.991-.073s1.266 1.033.789 1.8l-12.209 19.64a12.16 12.16 0 0 1 5.713 2.314l19.26-19.26c.639-.638 1.23-.225 1.87.414.64.64 1.083 1.262.444 1.901L34.868 39.478a12.16 12.16 0 0 1 2.43 5.599l19.469-12.103c.768-.477 1.323.021 1.8.789.478.767.696 1.514-.072 1.991M16.579 55.637c4.281 4.28 10.945 4.72 15.72 1.326L14.801 40.6c-2.894 4.711-2.303 10.956 1.777 15.037"/></svg>
